app/client/src/assets/icons/blueprintjs/16px/array-string.svg

<?xml version="1.0" encoding="UTF-8"?>
<svg width="16px" height="16px" viewBox="0 0 16 16" version="1.1" xmlns="http://www.w3.org/2000/svg" xmlns:xlink="http://www.w3.org/1999/xlink">
    <title>array-string</title>
    <g stroke-width="1" fill-rule="evenodd">
        <path d="M15,0 C15.5128358,0 15.9355072,0.38604019 15.9932723,0.883378875 L16,1 L16,15 C16,15.5128358 15.6139598,15.9355072 15.1166211,15.9932723 L15,16 L12,16 C11.4477153,16 11,15.5522847 11,15 C11,14.4871642 11.3860402,14.0644928 11.8833789,14.0067277 L12,14 L14,14 L14,2 L12,2 C11.4871642,2 11.0644928,1.61395981 11.0067277,1.11662113 L11,1 C11,0.487164161 11.3860402,0.0644928393 11.8833789,0.00672773133 L12,0 L15,0 Z M4,0 C4.55228475,0 5,0.44771525 5,1 C5,1.51283584 4.61395981,1.93550716 4.11662113,1.99327227 L4,2 L2,2 L2,14 L4,14 C4.51283584,14 4.93550716,14.3860402 4.99327227,14.8833789 L5,15 C5,15.5128358 4.61395981,15.9355072 4.11662113,15.9932723 L4,16 L1,16 C0.487164161,16 0.0644928393,15.6139598 0.00672773133,15.1166211 L0,15 L0,1 C0,0.487164161 0.38604019,0.0644928393 0.883378875,0.00672773133 L1,0 L4,0 Z M5.60930233,5 C6.12403101,5 6.57209302,5.2124031 6.95348837,5.6372093 C7.33488372,6.0620155 7.5255814,6.63410853 7.5255814,7.35348837 C7.5255814,8.19069767 7.26821705,8.94108527 6.75348837,9.60465116 C6.23875969,10.2682171 5.42635659,10.8046512 4.31627907,11.2139535 L4.31627907,11.2139535 L4.31627907,10.7488372 L4.5494186,10.6541424 C5.07848837,10.4184351 5.50310078,10.0794574 5.82325581,9.6372093 C6.18914729,9.13178295 6.37209302,8.60620155 6.37209302,8.06046512 C6.37209302,7.94263566 6.35348837,7.85581395 6.31627907,7.8 C6.29767442,7.7627907 6.27286822,7.74418605 6.24186047,7.74418605 C6.21085271,7.74418605 6.16124031,7.76899225 6.09302326,7.81860465 C5.89457364,7.96124031 5.64651163,8.03255814 5.34883721,8.03255814 C4.98914729,8.03255814 4.6744186,7.88837209 4.40465116,7.6 C4.13488372,7.31162791 4,6.96899225 4,6.57209302 C4,6.1503876 4.15503876,5.78294574 4.46511628,5.46976744 C4.7751938,5.15658915 5.15658915,5 5.60930233,5 Z M10.0837209,5 C10.5984496,5 11.0465116,5.2124031 11.427907,5.6372093 C11.8093023,6.0620155 12,6.63410853 12,7.35348837 C12,8.19069767 11.7426357,8.94108527 11.227907,9.60465116 C10.7131783,10.2682171 9.90077519,10.8046512 8.79069767,11.2139535 L8.79069767,11.2139535 L8.79069767,10.7488372 L9.02383721,10.6541424 C9.55290698,10.4184351 9.97751938,10.0794574 10.2976744,9.6372093 C10.6635659,9.13178295 10.8465116,8.60620155 10.8465116,8.06046512 C10.8465116,7.94263566 10.827907,7.85581395 10.7906977,7.8 C10.772093,7.7627907 10.7472868,7.74418605 10.7162791,7.74418605 C10.6852713,7.74418605 10.6356589,7.76899225 10.5674419,7.81860465 C10.3689922,7.96124031 10.1209302,8.03255814 9.82325581,8.03255814 C9.46356589,8.03255814 9.14883721,7.88837209 8.87906977,7.6 C8.60930233,7.31162791 8.4744186,6.96899225 8.4744186,6.57209302 C8.4744186,6.1503876 8.62945736,5.78294574 8.93953488,5.46976744 C9.2496124,5.15658915 9.63100775,5 10.0837209,5 Z"></path>
    </g>
</svg>

<svg xmlns="http://www.w3.org/2000/svg" width="16" height="16"><path fill-rule="evenodd" d="M15 0a1 1 0 0 1 .993.883L16 1v14a1 1 0 0 1-.883.993L15 16h-3a1 1 0 0 1-.117-1.993L12 14h2V2h-2a1 1 0 0 1-.993-.883L11 1a1 1 0 0 1 .883-.993L12 0h3ZM4 0a1 1 0 0 1 .117 1.993L4 2H2v12h2a1 1 0 0 1 .993.883L5 15a1 1 0 0 1-.883.993L4 16H1a1 1 0 0 1-.993-.883L0 15V1A1 1 0 0 1 .883.007L1 0h3Zm1.61 5c.514 0 .962.212 1.343.637.382.425.573.997.573 1.716 0 .838-.258 1.588-.773 2.252-.514.663-1.327 1.2-2.437 1.609v-.465l.233-.095a3.09 3.09 0 0 0 1.274-1.017c.366-.505.55-1.03.55-1.577a.478.478 0 0 0-.057-.26c-.018-.037-.043-.056-.074-.056s-.08.025-.149.075c-.198.142-.446.214-.744.214-.36 0-.675-.145-.944-.433A1.453 1.453 0 0 1 4 6.572c0-.422.155-.79.465-1.102.31-.313.692-.47 1.144-.47Zm4.474 0c.514 0 .963.212 1.344.637.381.425.572.997.572 1.716 0 .838-.257 1.588-.772 2.252-.515.663-1.327 1.2-2.437 1.609v-.465l.233-.095a3.09 3.09 0 0 0 1.274-1.017c.366-.505.549-1.03.549-1.577a.478.478 0 0 0-.056-.26c-.019-.037-.044-.056-.075-.056-.03 0-.08.025-.149.075-.198.142-.446.214-.744.214-.36 0-.674-.145-.944-.433a1.453 1.453 0 0 1-.405-1.028c0-.422.155-.79.466-1.102.31-.313.691-.47 1.144-.47Z"/></svg>
